X:972
T:John Kelly
T:Planxty Miss Burke
R:Other
O:Ireland
C:Turlough Carolan
B:O'Neill's 672
B:The Irish Collection
B:The Complete Works of O'Carolan
S:The Irish Collection
Z:Transcription, chords:Mike Long
M:6/8
L:1/8
K:C
"C"c2c cdc|"G"Bdd d2f|"C"edc egg|"F"fed "G"faa|"C"g2e "F"fed|
"G"cBA GAB|"C/Am"cEG cEG|"Am"A3 A3:|\
|:"C"gag "G"fed|"C"c2G c2G|"F"agf "C"edc|
"G"Bdd d3|"C"ge/f/g "F"afa|"C"geg "G/F"fdf|"C"edc "G"BGB|"C"c3 c3:|
